resources/svg/browser-thin.svg

<svg xmlns="http://www.w3.org/2000/svg" viewBox="0 0 256 256" fill="currentColor"><path d="M216.00781,44h-176a12.01343,12.01343,0,0,0-12,12V95.92236C28.00732,95.94873,28,95.97363,28,96s.00732.05127.00781.07764V200a12.01343,12.01343,0,0,0,12,12h176a12.01343,12.01343,0,0,0,12-12V56A12.01343,12.01343,0,0,0,216.00781,44Zm-176,8h176a4.00458,4.00458,0,0,1,4,4V92h-184V56A4.00458,4.00458,0,0,1,40.00781,52Zm176,152h-176a4.00458,4.00458,0,0,1-4-4V100h184V200A4.00458,4.00458,0,0,1,216.00781,204Z"/></svg>

<svg xmlns="http://www.w3.org/2000/svg" viewBox="0 0 256 256" fill="currentColor"><path d="M216,44H40A12,12,0,0,0,28,56V95.9h0V200a12,12,0,0,0,12,12H216a12,12,0,0,0,12-12V56A12,12,0,0,0,216,44ZM40,52H216a4,4,0,0,1,4,4V92H36V56A4,4,0,0,1,40,52ZM216,204H40a4,4,0,0,1-4-4V100H220V200A4,4,0,0,1,216,204Z"/></svg>
